korla/apps/scalable/artscontrol.svg

<svg xmlns="http://www.w3.org/2000/svg" width="48" height="48" version="1">
 <rect style="opacity:0.2" width="40" height="40" x="4" y="5" rx="19.999" ry="19.999"/>
 <rect style="fill:#9d9d9d" width="40" height="40" x="4" y="4" rx="19.999" ry="19.999"/>
 <circle style="fill:#707070" cx="-24" cy="-24" r="16" transform="matrix(0,-1,-1,0,0,0)"/>
 <circle style="fill:#3f3f3f" cx="-24" cy="-24" r="12" transform="matrix(0,-1,-1,0,0,0)"/>
 <circle style="opacity:0.1" cx="-25" cy="-24" r="6" transform="matrix(0,-1,-1,0,0,0)"/>
 <circle style="fill:#4f4f4f" cx="-24" cy="-24" r="6" transform="matrix(0,-1,-1,0,0,0)"/>
 <path style="opacity:0.1;fill:#ffffff" d="m 24,18 a 6,6 0 0 0 -6,6 6,6 0 0 0 0.02539,0.501953 A 6,6 0 0 1 24,19 6,6 0 0 1 29.974609,24.498047 6,6 0 0 0 30,24 6,6 0 0 0 24,18 Z"/>
 <path style="opacity:0.1;fill:#ffffff" d="M 24,4 C 12.920395,4 4,12.920395 4,24 4,24.167551 4.00766,24.33346 4.011719,24.5 4.2758915,13.653807 13.087946,5 24,5 34.912054,5 43.724109,13.653807 43.988281,24.5 43.992338,24.33346 44,24.167551 44,24 44,12.920395 35.079605,4 24,4 Z"/>
 <circle style="opacity:0.2" cx="33" cy="36" r="11"/>
 <circle style="fill:#be53d1" cx="33" cy="35" r="11"/>
 <path style="fill:#ffffff" d="m 31.488281,28.998047 -0.002,0.0039 h 0.002 z m 0,0.0039 -0.132812,1.578125 a 4.7567,4.7143 0 0 0 -1.390625,0.796875 l -1.449219,-0.677734 -1.513672,2.599609 1.316406,0.904297 A 4.7567,4.7143 0 0 0 28.244141,35 a 4.7567,4.7143 0 0 0 0.07031,0.796875 L 27,36.701172 28.513672,39.298828 29.958984,38.625 a 4.7567,4.7143 0 0 0 1.392578,0.791016 L 31.486328,41 h 3.025391 l 0.134765,-1.580078 a 4.7567,4.7143 0 0 0 1.388672,-0.796875 l 1.451172,0.675781 1.511719,-2.597656 -1.314453,-0.90625 A 4.7567,4.7143 0 0 0 37.755859,35 4.7567,4.7143 0 0 0 37.685547,34.201172 L 39,33.300781 37.486328,30.703125 36.039062,31.376953 A 4.7567,4.7143 0 0 0 34.646484,30.585938 L 34.513672,29.001953 H 31.488281 Z M 33,33 a 2,2 0 0 1 2,2 2,2 0 0 1 -2,2 2,2 0 0 1 -2,-2 2,2 0 0 1 2,-2 z"/>
</svg>

<svg clip-rule="evenodd" fill-rule="evenodd" stroke-linejoin="round" stroke-miterlimit="2" viewBox="0 0 48 48" xmlns="http://www.w3.org/2000/svg">
 <linearGradient id="a" x2="1" gradientTransform="matrix(0 -40 40 0 23.999 44)" gradientUnits="userSpaceOnUse">
  <stop stop-color="#717171" offset="0"/>
  <stop stop-color="#9d9d9d" offset="1"/>
 </linearGradient>
 <linearGradient id="b" x2="1" gradientTransform="matrix(32 0 0 -32 -40 -24)" gradientUnits="userSpaceOnUse">
  <stop stop-color="#535353" offset="0"/>
  <stop stop-color="#878787" offset="1"/>
 </linearGradient>
 <linearGradient id="c" x2="1" gradientTransform="matrix(24 0 0 -24 -36 -24)" gradientUnits="userSpaceOnUse">
  <stop stop-color="#4a4a4a" offset="0"/>
  <stop stop-color="#717171" offset="1"/>
 </linearGradient>
 <path transform="matrix(1.1382 0 0 1.1382 -3.3168 -3.3168)" d="m44 23.999c0-11.038-8.961-19.999-19.999-19.999h-2e-3c-11.038 0-19.999 8.961-19.999 19.999v2e-3c0 11.038 8.961 19.999 19.999 19.999h2e-3c11.038 0 19.999-8.961 19.999-19.999z" fill="url(#a)"/>
 <g transform="matrix(0 -1.1382 -1.1382 0 -3.3168 -3.3168)">
  <circle cx="-24" cy="-24" r="16" fill="url(#b)"/>
  <circle cx="-24" cy="-24" r="12" fill="url(#c)"/>
  <circle cx="-24" cy="-24" r="6" fill="#454545"/>
 </g>
 <circle cx="36.692307" cy="37.203475" r="9.928039" fill="#9c1ab3" stroke-width=".902549"/>
 <path transform="matrix(1.16667 0 0 1.16667 -1.80769 -3.6296)" d="m31.488 28.998-.002.004h.002zm0 .004-.133 1.578c-.505.186-.976.455-1.39.797l-1.449-.678-1.514 2.6 1.316.904c-.047.263-.072.53-.074.797.001.267.024.534.07.797l-1.314.904 1.514 2.598 1.445-.674c.416.34.887.607 1.393.791l.134 1.584h3.026l.134-1.58c.506-.186.975-.455 1.389-.797l1.451.676 1.512-2.598-1.314-.906c.046-.263.07-.528.072-.795-.001-.268-.024-.535-.07-.799l1.314-.9-1.514-2.598-1.447.674c-.416-.34-.886-.607-1.393-.791l-.132-1.584zm1.512 3.427c1.411 0 2.571 1.16 2.571 2.571s-1.16 2.571-2.571 2.571-2.571-1.16-2.571-2.571 1.16-2.571 2.571-2.571z" fill="#fff" fill-rule="nonzero"/>
</svg>
